!!!COM: Beethoven
!!!OTL: 7 Variations on a Quartet by Winter
!!!Variation: Variation 5 f
**function	**harm	**kern	**kern
*	*	*clefG2	*clefG2
*	*	*k[b-]	*k[b-]
*M2/4	*M2/4	*M2/4	*M2/4
*F:	*F:	*F:	*F:
.	.	.	q8bn
4T	V	r	8ccL
.	.	.	q8bn
.	.	.	8ccJ
=286	=286	=286	=286
2T	V7	r	(8ccL
.	.	.	16eeJk)
.	.	.	r
.	.	(8B-L	r
.	.	16CJk)	.
.	.	r	.
=287	=287	=287	=287
2T	Ic	r	(8ccL
.	.	.	16ffJk)
.	.	.	r
.	.	(8AL	r
.	.	16CJk)	.
.	.	r	.
=288	=288	=288	=288
2T	V7	r	(8ccL
.	.	.	16bb-Jk)
.	.	.	r
.	.	(8EL	r
.	.	16CJk)	.
.	.	r	.
=289	=289	=289	=289
2T	Ic	r	(8ccL
.	.	.	16aaJk)
.	.	.	r
.	.	(8FL	r
.	.	16CJk)	.
.	.	r	.
=290	=290	=290	=290
4T	V7	r	(16ccLL
.	.	.	16eeJJ)
.	.	(16B-LL	r
.	.	16CJJ)	.
4T	viioD7/vi	r	(16dd#LL
.	.	.	16eeJJ)
.	.	(16B-LL	r
.	.	16C#JJ)	.
=291	=291	=291	=291
4P	vi	r	(16eeLL
.	.	.	16ffJJ)
.	.	(16ALL	r
.	.	16DJJ)	.
4P	V7c/V	r	(16ffLL 16gg
.	.	.	16fffJJ)
.	.	(16BLL	r
.	.	16DJJ)	.
=292	=292	=292	=292
4D	Ic	r	(16ffLL 16aa
.	.	.	16fffJJ)
.	.	(16cLL	r
.	.	16CJJ)	.
4D	V7	r	(16ggLL 16bb-
.	.	.	16eeeJJ)
.	.	(16ccLL	r
.	.	16cJJ)	.
=293	=293	=293	=293
4T	I	r	(16ffLL 16aa
.	.	.	16fffJJ)
.	.	(16fLL	r
.	.	16FJJ)	.
4T	V7	r	(16b-LL
.	.	.	16eeJJ)
.	.	(16cLL	r
.	.	16CJJ)	.
=294	=294	=294	=294
4T	I	r	(16aLL
.	.	.	16ffJJ)
.	.	(16FLL	r
.	.	16FFJJ)	.
*-	*-	*-	*-
